X:1
T:Munster Buttermilk
R:jig
M:6/8
L:1/8
K:D
|:d2f edB|BAF FEF|AFD DFA|BAF DFA|
|d2f edB|BAF FEF|AFD DEF|1 EDD ABc:|2 EDD d2B|]
|:AFA d2e|~f2f fed|g2e edB|def edB|
|AFA d2e|~f2f fed|edB Adf|1 edd d2B:|2 edd ABc|]